X: 2
T: Det var en l\/ordag aften
O: Dansk folkvisa
R: also waltz
M: 2/4
L: 1/8
K: F
|: C | "F"FF CC | A2 FA | "C7"GE CE | "F"F2 z :|
w: Det var en l\or-dag af-ten jeg sad og vent-ed dig;
A | "F"AA cA | "C7"GG cG | "F"FF "G7"dd | "C"c2 z ||
